Newaita-dark/actions/32/view-statistics.svg

<svg height="32" viewBox="0 0 32 32" width="32" xmlns="http://www.w3.org/2000/svg"><g fill="#e0e0e0"><path d="m16.539062 4.21875h1.320313c.367187 0 .664063.296875.664063.660156v23.816406c0 .367188-.296876.660157-.664063.660157h-1.320313c-.367187 0-.664062-.292969-.664062-.660157v-23.816406c0-.363281.296875-.660156.664062-.660156zm0 0"/><path d="m21.832031 10.835938h1.320313c.367187 0 .664062.292968.664062.660156v17.199218c0 .367188-.296875.660157-.664062.660157h-1.320313c-.367187 0-.664062-.292969-.664062-.660157v-17.199218c0-.367188.296875-.660156.664062-.660156zm0 0"/><path d="m5.953125 21.417969h1.324219c.363281 0 .660156.296875.660156.664062v6.613281c0 .367188-.296875.660157-.660156.660157h-1.324219c-.363281 0-.660156-.292969-.660156-.660157v-6.613281c0-.367187.296875-.664062.660156-.664062zm0 0"/><path d="m11.246094 14.804688h1.324218c.363282 0 .660157.296874.660157.660156v13.230468c0 .367188-.296875.660157-.660157.660157h-1.324218c-.367188 0-.660156-.292969-.660156-.660157v-13.230468c0-.363282.292968-.660156.660156-.660156zm0 0"/><path d="m27.121094 25.386719h1.324218c.367188 0 .660157.296875.660157.664062v2.644531c0 .367188-.292969.660157-.660157.660157h-1.324218c-.363282 0-.660156-.292969-.660156-.660157v-2.644531c0-.367187.296874-.664062.660156-.664062zm0 0"/></g></svg>

<?xml version="1.0" encoding="UTF-8"?>
<svg xmlns="http://www.w3.org/2000/svg" xmlns:xlink="http://www.w3.org/1999/xlink" width="32px" height="32px" viewBox="0 0 32 32" version="1.1">
<g id="surface1">
<path style=" stroke:none;fill-rule:nonzero;fill:rgb(87.843138%,87.843138%,87.843138%);fill-opacity:1;" d="M 16.539062 4.21875 L 17.859375 4.21875 C 18.226562 4.21875 18.523438 4.515625 18.523438 4.878906 L 18.523438 28.695312 C 18.523438 29.0625 18.226562 29.355469 17.859375 29.355469 L 16.539062 29.355469 C 16.171875 29.355469 15.875 29.0625 15.875 28.695312 L 15.875 4.878906 C 15.875 4.515625 16.171875 4.21875 16.539062 4.21875 Z M 16.539062 4.21875 "/>
<path style=" stroke:none;fill-rule:nonzero;fill:rgb(87.843138%,87.843138%,87.843138%);fill-opacity:1;" d="M 21.832031 10.835938 L 23.152344 10.835938 C 23.519531 10.835938 23.816406 11.128906 23.816406 11.496094 L 23.816406 28.695312 C 23.816406 29.0625 23.519531 29.355469 23.152344 29.355469 L 21.832031 29.355469 C 21.464844 29.355469 21.167969 29.0625 21.167969 28.695312 L 21.167969 11.496094 C 21.167969 11.128906 21.464844 10.835938 21.832031 10.835938 Z M 21.832031 10.835938 "/>
<path style=" stroke:none;fill-rule:nonzero;fill:rgb(87.843138%,87.843138%,87.843138%);fill-opacity:1;" d="M 5.953125 21.417969 L 7.277344 21.417969 C 7.640625 21.417969 7.9375 21.714844 7.9375 22.082031 L 7.9375 28.695312 C 7.9375 29.0625 7.640625 29.355469 7.277344 29.355469 L 5.953125 29.355469 C 5.589844 29.355469 5.292969 29.0625 5.292969 28.695312 L 5.292969 22.082031 C 5.292969 21.714844 5.589844 21.417969 5.953125 21.417969 Z M 5.953125 21.417969 "/>
<path style=" stroke:none;fill-rule:nonzero;fill:rgb(87.843138%,87.843138%,87.843138%);fill-opacity:1;" d="M 11.246094 14.804688 L 12.570312 14.804688 C 12.933594 14.804688 13.230469 15.101562 13.230469 15.464844 L 13.230469 28.695312 C 13.230469 29.0625 12.933594 29.355469 12.570312 29.355469 L 11.246094 29.355469 C 10.878906 29.355469 10.585938 29.0625 10.585938 28.695312 L 10.585938 15.464844 C 10.585938 15.101562 10.878906 14.804688 11.246094 14.804688 Z M 11.246094 14.804688 "/>
<path style=" stroke:none;fill-rule:nonzero;fill:rgb(87.843138%,87.843138%,87.843138%);fill-opacity:1;" d="M 27.121094 25.386719 L 28.445312 25.386719 C 28.8125 25.386719 29.105469 25.683594 29.105469 26.050781 L 29.105469 28.695312 C 29.105469 29.0625 28.8125 29.355469 28.445312 29.355469 L 27.121094 29.355469 C 26.757812 29.355469 26.460938 29.0625 26.460938 28.695312 L 26.460938 26.050781 C 26.460938 25.683594 26.757812 25.386719 27.121094 25.386719 Z M 27.121094 25.386719 "/>
</g>
</svg>
